package/converter/svg/thin/transporter-6.svg

<svg xmlns="http://www.w3.org/2000/svg" viewBox="0 0 512 512"><!-- Font Awesome Pro 6.0.0-alpha2 by @fontawesome - https://fontawesome.com License - https://fontawesome.com/license (Commercial License) --><path d="M104 272H408C412.406 272 416 268.422 416 264S412.406 256 408 256H104C99.594 256 96 259.578 96 264S99.594 272 104 272ZM88 40H56V8C56 3.578 52.406 0 48 0S40 3.578 40 8V40H8C3.594 40 0 43.578 0 48S3.594 56 8 56H40V88C40 92.422 43.594 96 48 96S56 92.422 56 88V56H88C92.406 56 96 52.422 96 48S92.406 40 88 40ZM232 16H280C284.406 16 288 12.422 288 8S284.406 0 280 0H232C227.594 0 224 3.578 224 8S227.594 16 232 16ZM504 392H472V360C472 355.578 468.406 352 464 352S456 355.578 456 360V392H424C419.594 392 416 395.578 416 400S419.594 408 424 408H456V440C456 444.422 459.594 448 464 448S472 444.422 472 440V408H504C508.406 408 512 404.422 512 400S508.406 392 504 392ZM376 448H136C113.938 448 96 465.938 96 488V504C96 508.422 99.594 512 104 512S112 508.422 112 504V488C112 474.766 122.781 464 136 464H376C389.219 464 400 474.766 400 488V504C400 508.422 403.594 512 408 512S416 508.422 416 504V488C416 465.938 398.062 448 376 448Z"/></svg>

<svg xmlns="http://www.w3.org/2000/svg" viewBox="0 0 512 512"><!--! Font Awesome Pro 6.6.0 by @fontawesome - https://fontawesome.com License - https://fontawesome.com/license (Commercial License) Copyright 2024 Fonticons, Inc. --><path d="M56 8c0-4.4-3.6-8-8-8s-8 3.6-8 8l0 32L8 40c-4.4 0-8 3.6-8 8s3.6 8 8 8l32 0 0 32c0 4.4 3.6 8 8 8s8-3.6 8-8l0-32 32 0c4.4 0 8-3.6 8-8s-3.6-8-8-8L56 40 56 8zM472 360c0-4.4-3.6-8-8-8s-8 3.6-8 8l0 32-32 0c-4.4 0-8 3.6-8 8s3.6 8 8 8l32 0 0 32c0 4.4 3.6 8 8 8s8-3.6 8-8l0-32 32 0c4.4 0 8-3.6 8-8s-3.6-8-8-8l-32 0 0-32zM112 496c0-17.7 14.3-32 32-32l224 0c17.7 0 32 14.3 32 32l0 8c0 4.4 3.6 8 8 8s8-3.6 8-8l0-8c0-26.5-21.5-48-48-48l-224 0c-26.5 0-48 21.5-48 48l0 8c0 4.4 3.6 8 8 8s8-3.6 8-8l0-8zM96 264c0 4.4 3.6 8 8 8l304 0c4.4 0 8-3.6 8-8s-3.6-8-8-8l-304 0c-4.4 0-8 3.6-8 8zM232 0c-4.4 0-8 3.6-8 8s3.6 8 8 8l48 0c4.4 0 8-3.6 8-8s-3.6-8-8-8L232 0z"/></svg>
